X: 73
T:Good Humour
% Nottingham Music Database
S:CDM, via EF
M:4/4
L:1/4
K:G
d|"G"GB/2B/2 Bd|"C"e/2f/2g "G"d2|"C"e/2f/2g "G"dB|"A7"BA "D7"AB/2A/2|\
"G"GB/2B/2 Bd|
"C"e/2f/2g "G/b"dB|"C"e/2f/2g "D7"fd|"G"g2 "G7"g2|"C"ge/2e/2 ee|"G"gd/2d/2 d2|
"D7"dA/2A/2 Ac|"G"BG/2G/2 "G7"G2|"C"ge/2e/2 ee|"G"gd/2d/2 d2|\
"A7"A3/2"g"A/2 "f#"A"e"g|
"D7"f"c"e "b"d/2c/2"a"B/2A/2|"G"GB/2B/2 Bd|"C"e/2f/2g "G"d2|"C"e/2f/2g "G"dB|\
"C"BA "D"AB/2A/2|
"Em"GB/2B/2 B"d"d|"C"e/2f/2g "G/b"dB|"C"e/2f/2g "D7"fd|"G"g2 "G7"f2|\
K:C
"C"ee/2e/2 ee|"C"g2 fe|
"G7"ed AB|"C"dc G2|\
K:C
"C"ee/2e/2 ee|"F"a2 gf|"Dm"fg/2f/2 "G7"ed|"C"c2 "D7"d2||<end>
<start>
